X: 405
T: Maskelia
C: Fred Moyes
R: reel
Z: 1997 by John Chambers <jc:trillian.mit.edu>
M: C|
L: 1/8
K: D
|: de \
| "D"fedc dcBA | "G"BDGB "D"A2DE | FDFA "B7"BAGF | "Em"G2E2 "A7"E2de |
| "D"fedc dcBA | "G"BDGB "D"A2DE | FAGF "A7"GECA, | "D"D2F2 D2 :|
|| FG \
| "D"A2FA DAFA | "G"BDGB "D"A2DE | FDFA "B7"BAGF | "Em"G2E2 "A7"E2FG |
| "D"A2FA DAFA | "G"BDGB "D"A2DE | FAGF "A7"GECA, | "D"D2F2 D2 ||
|| FG \
| "D"A2FA DAFA | "G"BDGB "D"A2DE | FDFA "B7"BAGF | "Em"G2E2 "A7"E2de |
| "D"fedc dcBA | "G"BDGB "D"A2DE | FAGF "A7"GECA, | "D"D2F2 D2 |]

%%sep 1 1 500

